icons/actions/22/document-save.svg

<svg xmlns="http://www.w3.org/2000/svg" viewBox="0 0 22 22">
  <defs id="defs3051">
    <style type="text/css" id="current-color-scheme">
      .ColorScheme-Text {
        color:#4d4d4d;
      }
      </style>
  </defs>
 <path 
    style="fill:currentColor;fill-opacity:1;stroke:none" 
    d="M 3 2.9980469 L 3 3 L 3 4 L 3 19 L 4 19 L 19 19 L 19 18 L 19 7 L 19 6.3007812 L 18.992188 6.3007812 L 19 6.2910156 L 15.707031 2.9980469 L 15.699219 3.0078125 L 15.699219 2.9980469 L 15 2.9980469 L 3 2.9980469 z M 4 4 L 7 4 L 7 8 L 7 9 L 15 9 L 15 8 L 15 4 L 15.292969 4 L 18 6.7070312 L 18 7 L 18 18 L 16 18 L 16 11 L 15 11 L 7 11 L 6 11 L 6 18 L 4 18 L 4 4 z M 8 4 L 11.900391 4 L 11.900391 8 L 8 8 L 8 4 z M 7 12 L 15 12 L 15 18 L 7 18 L 7 12 z "
    class="ColorScheme-Text"
    />  
</svg>

<?xml version="1.0"?>
<!-- Created with Inkscape (http://www.inkscape.org/) -->
<svg xmlns:dc="http://purl.org/dc/elements/1.1/" xmlns:cc="http://creativecommons.org/ns#" xmlns:rdf="http://www.w3.org/1999/02/22-rdf-syntax-ns#" xmlns:svg="http://www.w3.org/2000/svg" xmlns="http://www.w3.org/2000/svg" xmlns:sodipodi="http://sodipodi.sourceforge.net/DTD/sodipodi-0.dtd" xmlns:inkscape="http://www.inkscape.org/namespaces/inkscape" width="22" height="22" id="svg2" version="1.1" inkscape:version="0.91+devel r" viewBox="0 0 22 22" sodipodi:docname="document-save.svg">
  <title id="title4152">I REALLY hate this icon</title>
  <defs id="defs4">
    <style type="text/css" id="current-color-scheme">
      .ColorScheme-Text {
        color:#4d4d4d;
      }
      .ColorScheme-Background {
        color:#eff0f1;
      }
      .ColorScheme-Highlight {
        color:#3daee9;
      }
      .ColorScheme-ViewText {
        color:#31363b;
      }
      .ColorScheme-ViewBackground {
        color:#fcfcfc;
      }
      .ColorScheme-ViewHover {
        color:#93cee9;
      }
      .ColorScheme-ViewFocus{
        color:#3daee9;
      }
      .ColorScheme-ButtonText {
        color:#31363b;
      }
      .ColorScheme-ButtonBackground {
        color:#eff0f1;
      }
      .ColorScheme-ButtonHover {
        color:#93cee9;
      }
      .ColorScheme-ButtonFocus{
        color:#3daee9;
      }
      </style>
  </defs>
  <sodipodi:namedview id="base" pagecolor="#ffffff" bordercolor="#666666" borderopacity="1.0" inkscape:pageopacity="0.0" inkscape:pageshadow="2" inkscape:zoom="16" inkscape:cx="-32.057533" inkscape:cy="11.442155" inkscape:document-units="px" inkscape:current-layer="layer1" showgrid="true" inkscape:showpageshadow="false" borderlayer="true" inkscape:window-width="2560" inkscape:window-height="957" inkscape:window-x="-4" inkscape:window-y="29" inkscape:window-maximized="1" units="px">
    <sodipodi:guide position="2,20.000017" orientation="18,0" id="guide4085"/>
    <sodipodi:guide position="2,2.0000174" orientation="0,18" id="guide4087"/>
    <sodipodi:guide position="20,2.0000174" orientation="-18,0" id="guide4089"/>
    <sodipodi:guide position="20,20.000017" orientation="0,-18" id="guide4091"/>
    <sodipodi:guide position="3,19.000017" orientation="16,0" id="guide4093"/>
    <sodipodi:guide position="3,3.0000174" orientation="0,16" id="guide4095"/>
    <sodipodi:guide position="19,3.0000174" orientation="-16,0" id="guide4097"/>
    <sodipodi:guide position="19,19.000017" orientation="0,-16" id="guide4099"/>
    <inkscape:grid type="xygrid" id="grid4101"/>
  </sodipodi:namedview>
  <metadata id="metadata7">
    <rdf:RDF>
      <cc:Work rdf:about="">
        <dc:format>image/svg+xml</dc:format>
        <dc:type rdf:resource="http://purl.org/dc/dcmitype/StillImage"/>
        <dc:title>I REALLY hate this icon</dc:title>
        <dc:description>Migh as well use Tango... for crying out loud. This damn icon has to die, but no because obviously we're still using floppies therefore it is still relevant in 2014.</dc:description>
        <dc:language>English</dc:language>
        <dc:rights>
          <cc:Agent>
            <dc:title/>
          </cc:Agent>
        </dc:rights>
        <dc:creator>
          <cc:Agent>
            <dc:title>Uri Herrera</dc:title>
          </cc:Agent>
        </dc:creator>
        <dc:date>November 20th 2014</dc:date>
        <cc:license rdf:resource=""/>
      </cc:Work>
    </rdf:RDF>
  </metadata>
  <g inkscape:label="Capa 1" inkscape:groupmode="layer" id="layer1" transform="translate(0,-1030.3622)">
    <g id="layer1-7" inkscape:label="Capa 1">
      <path id="rect4126" transform="translate(0,1030.3622)" d="m 3,3 0,1 0,15 1,0 15,0 0,-1 0,-11 0,-0.6992188 -0.0078,0 L 19,6.2929688 15.707031,3 15.699231,3.00781 15.699231,3 15,3 3,3 Z M 4,4 7,4 7,8 7,9 15,9 15,8 15,4 15.292969,4 18,6.7070312 18,7 l 0,11 -2,0 0,-7 -1,0 -8,0 -1,0 0,7 -2,0 0,-14 z m 4,0 3.900391,0 0,4 L 8,8 8,4 Z m -1,8 8,0 0,6 -8,0 0,-6 z" style="fill:currentColor;fill-opacity:1;stroke:none" inkscape:connector-curvature="0" class="ColorScheme-Text"/>
    </g>
    <rect ry="0" y="1032.3622" x="-23.999996" height="19.000021" width="18" id="BG_MESSAGE" style="color:#000000;text-decoration:none;text-decoration-line:none;text-decoration-style:solid;text-decoration-color:#000000;white-space:normal;clip-rule:nonzero;display:inline;overflow:visible;visibility:visible;opacity:1;isolation:auto;mix-blend-mode:normal;color-interpolation:sRGB;color-interpolation-filters:linearRGB;solid-color:#000000;solid-opacity:1;fill:#1a1a1a;fill-opacity:1;fill-rule:nonzero;stroke:none;stroke-width:1;stroke-linecap:butt;stroke-linejoin:miter;stroke-miterlimit:4;stroke-dasharray:none;stroke-dashoffset:0;stroke-opacity:1;color-rendering:auto;image-rendering:auto;shape-rendering:auto;text-rendering:auto;enable-background:accumulate"/>
    <path inkscape:connector-curvature="0" id="MESSAGE" d="m -17.800781,1035.5594 0,2.8536 0.138672,0 0,-2.8536 -0.138672,0 z m 3.173828,3.0235 0,0.125 0.5,0 0,3.375 0.06445,0 0,0.6426 c 0.005,0.31 0.289219,0.4962 0.574219,0.6562 0.285,0.16 0.566406,0.2706 0.566406,0.5606 l 0,0.2441 c 0,0.32 -0.166094,0.5645 -0.496094,0.5645 -0.0332,0 -0.06385,0 -0.09375,-0.01 l -0.03906,-0.1133 -0.138672,0 0,0.047 c -0.16373,-0.1012 -0.245161,-0.2934 -0.238281,-0.5 l 0,-0.3007 -0.134766,0 0,0.3007 c -0.004,0.3138 0.143357,0.5471 0.373047,0.6485 l 0,3.3047 0.138672,0 0,-3.0743 1.05664,3.0743 0.134766,0 0,-3.5 -0.134766,0 0,3.1113 -0.970703,-2.8613 c 0.0159,10e-4 0.03057,0 0.04687,0 0.43,0 0.63086,-0.3203 0.63086,-0.6953 l 0,-0.2657 c 0,-0.33 -0.34625,-0.489 -0.65625,-0.664 -0.245,-0.14 -0.463516,-0.261 -0.478516,-0.541 l 0,-0.7149 c 0,-0.37 0.188984,-0.5488 0.458984,-0.5488 0.15442,0 0.262525,0.058 0.333985,0.1504 l 0,0.4804 0.111328,0 0,0.3223 0.134766,0 0,-0.3223 0.878906,0 0,-0.1308 -0.88086,0 c -0.005,-0.1434 -0.0408,-0.2715 -0.103515,-0.375 l 0,-0.459 0.779297,0 0,-0.125 -0.779297,0 0,-2.2852 0.984375,0 0,-0.125 -1.125,0 0,2.836 c -0.0893,-0.066 -0.201175,-0.1035 -0.333985,-0.1035 -0.26702,0 -0.440546,0.1328 -0.529297,0.332 l 0,-2.9395 0.5,0 0,-0.125 -1.134765,0 z m -3.173828,0.029 0,0.4472 0,2.2813 -0.195313,0 0,0.125 0.195313,0 0,0.6172 0.138672,0 0,-0.6172 0.166015,0 0,3.375 0.134766,0 0,-3.375 0.5,0 0,-0.125 -0.800781,0 0,-0.1836 0.996093,0 0,0.9258 0.134766,0 0,-3.4707 -0.134766,0 0,2.416 -0.996093,0 0,-1.9688 0,-0.4472 -0.138672,0 z m 2.207031,0 -0.537109,3.4707 0.140625,0 0.144531,-0.9649 0.714844,0 0.15039,0.9649 0.140625,0 -0.550781,-3.4707 -0.203125,0 z m 0.103516,0.1758 0.339843,2.1953 -0.673828,0 0.333985,-2.1953 z m -1.001954,2.5527 0,3.2715 c -0.0117,-5e-4 -0.02326,0 -0.03516,0 -0.39,0 -0.640625,0.319 -0.640625,0.709 l 0,2.1406 c 0,0.39 0.240391,0.7051 0.650391,0.7051 0.43,0 0.625,-0.3543 0.625,-0.6993 l 0,-0.2558 -0.134766,0 0,0.2558 c 0,0.3 -0.155234,0.5645 -0.490234,0.5645 -0.34,0 -0.509766,-0.2853 -0.509766,-0.5703 l 0,-2.1406 c 0,-0.36 0.209766,-0.5743 0.509766,-0.5743 0.009,0 0.01709,0 0.02539,0 l 0,0.094 0.138672,0 0,-0.068 c 0.21578,0.075 0.326172,0.2987 0.326172,0.5469 l 0.0039,0.2754 0.13086,0 0,-0.2793 c 0,-0.3271 -0.177118,-0.6016 -0.460938,-0.6816 l 0,-0.7188 0.996094,0 0,0.9258 0.03711,0 c -0.0921,0.1238 -0.138672,0.2832 -0.138672,0.4492 l 0,2.1856 c 0,0.38 0.239531,0.6894 0.644531,0.6894 0.42,0 0.625,-0.3403 0.625,-0.6953 l 0,-2.1738 c 0,-0.2799 -0.128282,-0.5302 -0.357422,-0.6387 l 0,-3.3164 -0.138672,0 0,3.2715 c -0.0405,-0.01 -0.08417,-0.012 -0.128906,-0.012 -0.16949,0 -0.304873,0.053 -0.408203,0.1386 l 0,-3.3984 -0.134766,0 0,2.4453 -0.996094,0 0,-2.4453 -0.138672,0 z m -1.308593,3.2891 0,3.5 0.138672,0 0,-3.5 -0.138672,0 z m 2.986328,0.1 c 0.0461,0 0.08977,0.01 0.128906,0.016 l 0,0.096 0.138672,0 0,-0.029 c 0.1511,0.1039 0.222656,0.2941 0.222656,0.4844 l 0,2.1738 c 0,0.305 -0.160234,0.5605 -0.490234,0.5605 -0.345,0 -0.503906,-0.2597 -0.503906,-0.5547 l 0,-2.1855 c 0,-0.31 0.158906,-0.5605 0.503906,-0.5605 z" style="font-style:normal;font-variant:normal;font-weight:300;font-stretch:normal;font-size:medium;line-height:125%;font-family:Canter;-inkscape-font-specification:'Canter Light';letter-spacing:0px;word-spacing:0px;fill:#52d563;fill-opacity:1;stroke:none;stroke-width:1px;stroke-linecap:butt;stroke-linejoin:miter;stroke-opacity:1"/>
  </g>
</svg>
